client/src/assets/svg/Bell.svg

<svg width="23" height="24" viewBox="0 0 23 24" fill="none" xmlns="http://www.w3.org/2000/svg">
<path d="M11.8287 22.5011C11.8287 22.3596 11.7579 22.2889 11.6164 22.2889C11.0946 22.2889 10.6457 22.1009 10.2698 21.725C9.8939 21.3491 9.70595 20.9002 9.70595 20.3784C9.70595 20.2369 9.63519 20.1661 9.49367 20.1661C9.35215 20.1661 9.2814 20.2369 9.2814 20.3784C9.2814 21.0241 9.50915 21.5746 9.96466 22.0302C10.4202 22.4857 10.9707 22.7134 11.6164 22.7134C11.7579 22.7134 11.8287 22.6427 11.8287 22.5011ZM2.99275 18.6802H20.2401C17.8874 16.0268 16.711 12.3473 16.711 7.6419C16.711 7.19081 16.6049 6.72646 16.3926 6.24884C16.1803 5.77122 15.8752 5.31572 15.4772 4.88232C15.0792 4.44893 14.5418 4.09293 13.8652 3.81431C13.1886 3.5357 12.439 3.3964 11.6164 3.3964C10.7939 3.3964 10.0443 3.5357 9.36763 3.81431C8.69101 4.09293 8.15369 4.44893 7.75567 4.88232C7.35765 5.31572 7.05251 5.77122 6.84023 6.24884C6.62796 6.72646 6.52182 7.19081 6.52182 7.6419C6.52182 12.3473 5.34547 16.0268 2.99275 18.6802ZM22.6547 18.6802C22.6547 19.1401 22.4867 19.5381 22.1506 19.8742C21.8145 20.2103 21.4164 20.3784 20.9565 20.3784H15.0128C15.0128 21.3159 14.6811 22.1164 14.0178 22.7798C13.3544 23.4431 12.554 23.7748 11.6164 23.7748C10.6789 23.7748 9.87842 23.4431 9.21506 22.7798C8.5517 22.1164 8.22002 21.3159 8.22002 20.3784H2.27632C1.8164 20.3784 1.41838 20.2103 1.08228 19.8742C0.746176 19.5381 0.578125 19.1401 0.578125 18.6802C1.02036 18.3087 1.4228 17.9195 1.78544 17.5127C2.14807 17.1058 2.52398 16.5773 2.91315 15.9273C3.30232 15.2772 3.63179 14.5762 3.90155 13.8244C4.17132 13.0726 4.39244 12.1616 4.56491 11.0914C4.73739 10.0211 4.82362 8.87132 4.82362 7.6419C4.82362 6.29749 5.34104 5.04816 6.37588 3.89392C7.41072 2.73967 8.7684 2.03872 10.4489 1.79107C10.3781 1.62302 10.3428 1.45055 10.3428 1.27365C10.3428 0.919858 10.4666 0.619135 10.7143 0.371481C10.9619 0.123827 11.2626 0 11.6164 0C11.9702 0 12.2709 0.123827 12.5186 0.371481C12.7662 0.619135 12.8901 0.919858 12.8901 1.27365C12.8901 1.45055 12.8547 1.62302 12.7839 1.79107C14.4644 2.03872 15.8221 2.73967 16.857 3.89392C17.8918 5.04816 18.4092 6.29749 18.4092 7.6419C18.4092 8.87132 18.4955 10.0211 18.6679 11.0914C18.8404 12.1616 19.0615 13.0726 19.3313 13.8244C19.6011 14.5762 19.9305 15.2772 20.3197 15.9273C20.7089 16.5773 21.0848 17.1058 21.4474 17.5127C21.81 17.9195 22.2125 18.3087 22.6547 18.6802Z" fill="#092FB6"/>
</svg>

<svg fill="none" height="24" width="23" xmlns="http://www.w3.org/2000/svg"><path d="m11.829 22.501c0-.141-.071-.212-.213-.212-.521 0-.97-.188-1.346-.564s-.564-.825-.564-1.347c0-.141-.07-.212-.212-.212s-.213.07-.213.212c0 .646.228 1.197.684 1.652a2.25 2.25 0 0 0 1.651.683c.142 0 .213-.07.213-.212zm-8.836-3.82h17.247c-2.353-2.654-3.529-6.334-3.529-11.04 0-.45-.106-.915-.318-1.392s-.518-.933-.916-1.367c-.398-.433-.935-.79-1.612-1.068-.676-.278-1.426-.418-2.249-.418-.822 0-1.572.14-2.248.418-.677.279-1.214.635-1.612 1.068a5.07 5.07 0 0 0 -.916 1.368 3.419 3.419 0 0 0 -.318 1.393c0 4.705-1.177 8.385-3.53 11.038zm19.662 0c0 .46-.168.857-.504 1.193s-.735.504-1.195.504h-5.943c0 .938-.332 1.738-.995 2.402a3.273 3.273 0 0 1 -2.402.995 3.273 3.273 0 0 1 -2.4-.995 3.273 3.273 0 0 1 -.996-2.402h-5.944c-.46 0-.858-.168-1.194-.504a1.632 1.632 0 0 1 -.504-1.194c.442-.371.845-.76 1.207-1.167.363-.407.739-.936 1.128-1.586.39-.65.719-1.35.989-2.103.27-.751.49-1.662.663-2.733.172-1.07.259-2.22.259-3.45 0-1.344.517-2.593 1.552-3.747 1.034-1.154 2.392-1.855 4.073-2.104a1.32 1.32 0 0 1 -.106-.517c0-.354.124-.655.371-.903.248-.247.549-.371.902-.371s.655.124.903.371c.247.248.371.549.371.903 0 .177-.035.349-.106.517 1.68.248 3.038.949 4.073 2.103s1.552 2.403 1.552 3.748c0 1.23.086 2.38.259 3.45.172 1.07.394 1.98.663 2.732s.6 1.453.989 2.103.765 1.179 1.127 1.586c.363.406.765.796 1.208 1.167z" fill="#092fb6"/></svg>
